X: 490
T: Polska efter Melker Andersson (490)
S: Melker Andersson hade polskan efter Glabon
B: Olof Anderssons uppteckningar, del III
O: Södermanland
Q: 110
R: Polska
M: 3/4
L: 1/16
K: D
AA |: A2d2 D2E2 F2G2 | ABAG A2B2 c2A2 | A2d2 D2E2 F2G2 | ABAG A4 A,4 ::
d4 egec d2ef | g2g2 fafd e2fg| a2fa g2eg f2df | e2c2 c2d2 d4 :|

